Origami/24x24/apps/jabref.svg

<svg width="24" height="24" version="1" xmlns="http://www.w3.org/2000/svg">
 <path d="m5.4820443 3.5000009c-2.5222274 0.001188-3.9163432 2.9266728-2.3288671 4.887015 1.8433879 2.2749561 1.9826631 4.3683191 1.9072114 6.1365901-1.9613241-0.742591-4.059484 0.706209-4.0603886 2.803737 0 2.752014 2.6803297 5.166217 5.5322794 5.166217 2.5608655 0 4.4983446-1.521083 5.4951896-3.526148 0.120767 0.10653 0.209805 0.247627 0.331858 0.351444 1.692745 1.439817 3.722544 2.581795 5.955888 3.098558 2.767202 0.638932 4.789572-2.569726 3.019914-4.791345-0.811344-1.01781-1.992642-2.362723-2.764188-3.459764-0.08625-0.122635-0.07598-0.133964-0.14836-0.247962 0.664649-0.736722 1.215575-1.549926 1.454322-2.573347 0.397069-1.7020976-0.313455-3.51419-1.270824-4.572667-2.123486-1.9853182-4.745472-2.7734627-7.134962-3.2332788-0.0033-6.552e-4 -0.0065-0.00131-0.0098-0.00195-0.0021-3.233e-4 -0.0038-0.00163-0.0059-0.00195v0.00195c-0.530877-0.082823-1.07426-0.02146-1.573317 0.177671h-0.001949c-0.2628019 0.1059293-0.5092675 0.2485758-0.7320443 0.4236852-0.8204218-0.2958995-2.0078473-0.6384555-3.6660624-0.6384555z" style="fill-rule:evenodd;opacity:.2"/>
 <path d="m5.4820443 3.0000001c-2.5222274 0.001188-3.9163432 2.9266728-2.3288671 4.887015 1.8433879 2.2749569 1.9826631 4.3683199 1.9072114 6.1365909-1.9613241-0.742591-4.059484 0.706209-4.0603886 2.803737 0 2.752014 2.6803297 5.166217 5.5322794 5.166217 2.5608655 0 4.4983446-1.521083 5.4951896-3.526148 0.120767 0.10653 0.209805 0.247627 0.331858 0.351444 1.692745 1.439817 3.722544 2.581795 5.955888 3.098558 2.767202 0.638932 4.789572-2.569726 3.019914-4.791345-0.811344-1.01781-1.992642-2.362723-2.764188-3.459764-0.08625-0.122635-0.07598-0.133964-0.14836-0.247962 0.664649-0.736722 1.215575-1.549926 1.454322-2.573347 0.397069-1.7020984-0.313455-3.5141908-1.270824-4.5726678-2.123486-1.9853182-4.745472-2.7734627-7.134962-3.2332788-0.0033-6.552e-4 -0.0065-0.00131-0.0098-0.00195-0.0021-3.233e-4 -0.0038-0.00163-0.0059-0.00195v0.00195c-0.530877-0.082823-1.07426-0.02146-1.573317 0.177671h-0.001949c-0.2628019 0.1059293-0.5092675 0.2485758-0.7320443 0.4236852-0.8204218-0.2958995-2.0078473-0.6384555-3.6660624-0.6384555z" style="fill-rule:evenodd;fill:#55648f"/>
 <path d="m5.4844 6.5000008c2.5922 3.1985 2.7337 6.4989992 2.5966 8.6659992-0.12 1.899-0.1358211 2.820588-1.204 3.301-0.9402159 0.422861-1.877 0.033-2.877-1.135 0 1.167 0.9254 2.168 2.5352 2.168 1.6097 0 2.9271-1.399 3.1953-2.977 0.9291-8.1425992-0.8379-9.2866992-0.8379-9.2866992s-1.6186-0.7363-3.4082-0.7363zm5.5156 0c0.47059 2.161 4 3.0101 4 4.0370992 0 1.0275-3.039 1.2061-3 2.8711 0.039 2.303 3.7835 5.348 6.9995 6.092-1.412-1.771-4.981-5.631-3.805-6.623 4.236-3.1171992 0.354-5.6685992-4.195-6.3769992z" style="fill-rule:evenodd;opacity:.2"/>
 <path d="m5.4844 6c2.5922 3.1985 2.7337 6.499 2.5966 8.666-0.12 1.899-0.1358211 2.820588-1.204 3.301-0.9402159 0.422861-1.877 0.033-2.877-1.135 0 1.167 0.9254 2.168 2.5352 2.168 1.6097 0 2.9271-1.399 3.1953-2.977 0.9291-8.1426-0.8379-9.2867-0.8379-9.2867s-1.6186-0.7363-3.4082-0.7363zm5.5156 0c0.47059 2.161 4 3.0101 4 4.0371 0 1.0275-3.039 1.2061-3 2.8711 0.039 2.303 3.7835 5.348 6.9995 6.092-1.412-1.771-4.981-5.631-3.805-6.623 4.236-3.1172 0.354-5.6686-4.195-6.377z" style="fill-rule:evenodd;fill:#ffffff"/>
 <path d="m5.4824219 3c-1.8916706 8.91e-4 -3.1496264 1.6470073-2.9902344 3.296875 0.1077956-1.4665752 1.2904724-2.7960744 2.9902344-2.796875 1.6582151 0 2.8455938 0.3427724 3.6660156 0.6386719 0.2227768-0.1751094 0.46962-0.3178988 0.7324219-0.4238281h0.0019531c0.4990575-0.199131 1.0413885-0.2605574 1.5722655-0.1777344v-0.0019532c0.0021 3.201e-4 0.003759 0.0016299 0.00586 0.0019532 0.0033 6.4e-4 0.006465 0.0012979 0.009765 0.0019531 2.38949 0.4598161 5.01128 1.2471037 7.134766 3.2324219 0.711368 0.7864959 1.285418 1.9895378 1.371093 3.2539066 0.055047-1.4415072-0.566496-2.8643362-1.371093-3.7539066-2.123486-1.9853182-4.745276-2.7726058-7.134766-3.2324219-0.0033-6.552e-4 -0.006466-0.0013131-0.009765-0.0019531-0.002101-3.233e-4 -0.00376-0.0016332-0.00586-0.0019532v0.0019532c-0.530877-0.082823-1.073208-0.0213967-1.5722655 0.1777344h-0.0019531c-0.2628019 0.1059293-0.5096451 0.2487187-0.7324219 0.4238281-0.8204218-0.2958995-2.0078005-0.6386719-3.6660156-0.6386719zm13.117187 10.705078c-0.060076 0.070433-0.1155 0.143909-0.177734 0.212891 0.07238 0.113998 0.062188 0.125412 0.148437 0.248047 0.771547 1.097041 1.954282 2.443127 2.765626 3.460937 0.40398 0.507156 0.601478 1.064672 0.646484 1.617188 0.065025-0.708894-0.119557-1.455686-0.646484-2.117188-0.802457-1.006661-1.964448-2.331548-2.736329-3.421875zm-14.277343 0.140625c-1.7155472-0.191491-3.3214741 1.147085-3.3222656 2.982422 0 0.112896 0.010683 0.224321 0.0195312 0.335937 0.1101995-2.005087 2.133009-3.363029 4.0410157-2.640624 0.0068108-0.159617-0.0041692-0.335192-0.0019531-0.5-0.2445631-0.092421-0.4918628-0.150447-0.7363282-0.177735z" style="fill-rule:evenodd;fill:#ffffff;opacity:.1"/>
</svg>

<svg xmlns="http://www.w3.org/2000/svg" width="24" height="24" version="1">
 <path style="opacity:0.2;fill-rule:evenodd" d="M 5.4820443,3.5000009 C 2.9598169,3.5011889 1.5657011,6.4266737 3.1531772,8.3870159 4.9965651,10.661972 5.1358403,12.755335 5.0603886,14.523606 3.0990645,13.781015 1.0009046,15.229815 1,17.327343 c 0,2.752014 2.6803297,5.166217 5.5322794,5.166217 2.5608655,0 4.4983446,-1.521083 5.4951896,-3.526148 0.120767,0.10653 0.209805,0.247627 0.331858,0.351444 1.692745,1.439817 3.722544,2.581795 5.955888,3.098558 2.767202,0.638932 4.789572,-2.569726 3.019914,-4.791345 -0.811344,-1.01781 -1.992642,-2.362723 -2.764188,-3.459764 -0.08625,-0.122635 -0.07598,-0.133964 -0.14836,-0.247962 0.664649,-0.736722 1.215575,-1.549926 1.454322,-2.573347 0.397069,-1.7020976 -0.313455,-3.51419 -1.270824,-4.572667 -2.123486,-1.9853182 -4.745472,-2.7734627 -7.134962,-3.2332788 -0.0033,-6.552e-4 -0.0065,-0.00131 -0.0098,-0.00195 -0.0021,-3.233e-4 -0.0038,-0.00163 -0.0059,-0.00195 v 0.00195 C 10.92454,3.4542772 10.381157,3.5156402 9.8821,3.7147712 H 9.880151 C 9.6173491,3.8207005 9.3708835,3.963347 9.1481067,4.1384564 8.3276849,3.8425569 7.1402594,3.5000009 5.4820443,3.5000009 Z"/>
 <path style="fill:#55648f;fill-rule:evenodd" d="M 5.4820443,3.0000001 C 2.9598169,3.0011881 1.5657011,5.9266729 3.1531772,7.8870151 4.9965651,10.161972 5.1358403,12.255335 5.0603886,14.023606 3.0990645,13.281015 1.0009046,14.729815 1,16.827343 c 0,2.752014 2.6803297,5.166217 5.5322794,5.166217 2.5608655,0 4.4983446,-1.521083 5.4951896,-3.526148 0.120767,0.10653 0.209805,0.247627 0.331858,0.351444 1.692745,1.439817 3.722544,2.581795 5.955888,3.098558 2.767202,0.638932 4.789572,-2.569726 3.019914,-4.791345 -0.811344,-1.01781 -1.992642,-2.362723 -2.764188,-3.459764 -0.08625,-0.122635 -0.07598,-0.133964 -0.14836,-0.247962 0.664649,-0.736722 1.215575,-1.549926 1.454322,-2.573347 C 20.273972,9.1428976 19.563448,7.3308052 18.606079,6.2723282 16.482593,4.28701 13.860607,3.4988655 11.471117,3.0390494 c -0.0033,-6.552e-4 -0.0065,-0.00131 -0.0098,-0.00195 -0.0021,-3.233e-4 -0.0038,-0.00163 -0.0059,-0.00195 v 0.00195 C 10.92454,2.9542764 10.381157,3.0156394 9.8821,3.2147704 H 9.880151 C 9.6173491,3.3206997 9.3708835,3.4633462 9.1481067,3.6384556 8.3276849,3.3425561 7.1402594,3.0000001 5.4820443,3.0000001 Z"/>
 <path style="opacity:0.2;fill-rule:evenodd" d="M 5.4844,6.5000008 C 8.0766,9.6985008 8.2181,12.999 8.081,15.166 7.961,17.065 7.9451789,17.986588 6.877,18.467 5.9367841,18.889861 5,18.5 4,17.332 4,18.499 4.9254,19.5 6.5352,19.5 8.1449,19.5 9.4623,18.101 9.7305,16.523 10.6596,8.3804008 8.8926,7.2363008 8.8926,7.2363008 c 0,0 -1.6186,-0.7363 -3.4082,-0.7363 z m 5.5156,0 c 0.47059,2.161 4,3.0101 4,4.0370992 0,1.0275 -3.039,1.2061 -3,2.8711 0.039,2.303 3.7835,5.348 6.9995,6.092 -1.412,-1.771 -4.981,-5.631 -3.805,-6.623 4.236,-3.1171992 0.354,-5.6685992 -4.195,-6.3769992 z"/>
 <path style="fill:#ffffff;fill-rule:evenodd" d="M 5.4844,6 C 8.0766,9.1985 8.2181,12.499 8.081,14.666 7.961,16.565 7.9451789,17.486588 6.877,17.967 5.9367841,18.389861 5,18 4,16.832 4,17.999 4.9254,19 6.5352,19 8.1449,19 9.4623,17.601 9.7305,16.023 10.6596,7.8804 8.8926,6.7363 8.8926,6.7363 8.8926,6.7363 7.274,6 5.4844,6 Z M 11,6 c 0.47059,2.161 4,3.0101 4,4.0371 0,1.0275 -3.039,1.2061 -3,2.8711 0.039,2.303 3.7835,5.348 6.9995,6.092 -1.412,-1.771 -4.981,-5.631 -3.805,-6.623 4.236,-3.1172 0.354,-5.6686 -4.195,-6.377 z"/>
 <path style="opacity:0.1;fill:#ffffff;fill-rule:evenodd" d="M 5.4824219 3 C 3.5907513 3.000891 2.3327955 4.6470073 2.4921875 6.296875 C 2.5999831 4.8302998 3.7826599 3.5008006 5.4824219 3.5 C 7.140637 3.5 8.3280157 3.8427724 9.1484375 4.1386719 C 9.3712143 3.9635625 9.6180575 3.8207731 9.8808594 3.7148438 L 9.8828125 3.7148438 C 10.38187 3.5157128 10.924201 3.4542864 11.455078 3.5371094 L 11.455078 3.5351562 C 11.457178 3.5354763 11.458837 3.5367861 11.460938 3.5371094 C 11.464238 3.5377494 11.467403 3.5384073 11.470703 3.5390625 C 13.860193 3.9988786 16.481983 4.7861662 18.605469 6.7714844 C 19.316837 7.5579803 19.890887 8.7610222 19.976562 10.025391 C 20.031609 8.5838838 19.410066 7.1610548 18.605469 6.2714844 C 16.481983 4.2861662 13.860193 3.4988786 11.470703 3.0390625 C 11.467403 3.0384073 11.464237 3.0377494 11.460938 3.0371094 C 11.458837 3.0367861 11.457178 3.0354762 11.455078 3.0351562 L 11.455078 3.0371094 C 10.924201 2.9542864 10.38187 3.0157127 9.8828125 3.2148438 L 9.8808594 3.2148438 C 9.6180575 3.3207731 9.3712143 3.4635625 9.1484375 3.6386719 C 8.3280157 3.3427724 7.140637 3 5.4824219 3 z M 18.599609 13.705078 C 18.539533 13.775511 18.484109 13.848987 18.421875 13.917969 C 18.494255 14.031967 18.484063 14.043381 18.570312 14.166016 C 19.341859 15.263057 20.524594 16.609143 21.335938 17.626953 C 21.739918 18.134109 21.937416 18.691625 21.982422 19.244141 C 22.047447 18.535247 21.862865 17.788455 21.335938 17.126953 C 20.533481 16.120292 19.37149 14.795405 18.599609 13.705078 z M 4.3222656 13.845703 C 2.6067184 13.654212 1.0007915 14.992788 1 16.828125 C 1 16.941021 1.010683 17.052446 1.0195312 17.164062 C 1.1297307 15.158975 3.1525402 13.801033 5.0605469 14.523438 C 5.0673577 14.363821 5.0563777 14.188246 5.0585938 14.023438 C 4.8140307 13.931017 4.566731 13.872991 4.3222656 13.845703 z"/>
</svg>
